X: 7138
T: Christy Barry's
R: jig
M: 6/8
K: Gmajor
M:12/8
|:F|G2 A B2 G ABB d2 e|ged BGG ABA GED|
G2 A B2 G ABB d2 e|ged BGG AGG G2:|
|:f|g3 gfg agf d2 e|ged BGG ABA GED|
G2 A B2 G ABB d2 e|ged BGG AGG G2:|

